svg/u1f52e.svg

<svg viewBox="0 0 128 128" xmlns="http://www.w3.org/2000/svg">
  <g>
    <g>
      <g>
        <path d="M31.13,110.55c0-4.3,6.01-19.49,6.01-19.49c5.79-1.79,47.6-0.27,53.97-0.27 c0,0,5.76,12.33,5.76,19.76S79.19,124,64.06,124S31.13,117.98,31.13,110.55z" fill="#8B5738"/>
        <ellipse cx="64.06" cy="93.5" rx="27.05" ry="11.75" fill="#FFB17A"/>
      </g>
      <g>
        <path d="M38.67,106.15c3.02,1.72,7.8,1.59,11.51,2.26c4.72,0.86,7.39,4.46,16.49,4.3 c3.25-0.06,10.83-0.43,10.41-0.42c-0.26-0.53-1.74-1.04-4.62-1.49c-2.64-0.42-4.54-0.38-7.6-0.38c-2.34,0-5.55-0.7-8.79-2.48 c-1.48-0.81-3.78-1.71-6.03-2.17c-3.46-0.71-5.87,0.04-10.7-2.25c-2.31-1.09-4.18-3.35-4.62-5.98l-1.14,3.28 C35.08,103.57,36.45,104.89,38.67,106.15z" fill="#CC8552"/>
        <path d="M88.44,103.46c-7.74,4.92-14.28,4.37-14.28,4.37c-0.55,0.36,3.96,1.33,7.31,0.77 c6.58-1.1,10.58-4.4,13.18-8.82c-0.36-1.12-1.15-3.24-1.15-3.24C92.75,98.35,91.88,101.27,88.44,103.46z" fill="#CC8552"/>
        <path d="M74.51,117.42c-4.28,0.78-8.38-0.55-12.59-1.54c-5.77-1.35-16.61-1.16-16.61-1.16 c-0.65,0.32,5.11,2.41,7.91,2.65c2.55,0.22,5.25,0,7.67,0.99c3.41,1.39,6.71,2.09,10.01,2.09c6.27,0,14.46-3.78,16.41-8.69 c0,0-3.58,2.1-6.36,3.51C78.93,116.3,76.75,117.02,74.51,117.42z" fill="#A86D44"/>
        <path d="M35.82,111.48c0.85,1.36,1.72,2.62,2.86,3.75c1.93,1.92,4.37,3.03,5.94,2.75 c0,0-5.56-4.49-4.97-5.66c0.3-0.6,11.84,0.35,11.84,0.35s-3.5-1.84-6.91-2.5c-2.21-0.43-6.25,0.43-9.93-2.16 c-2.03-1.43-2.34-3.15-2.34-3.15s-0.73,2.49-0.88,3.44C33.56,110.53,35.54,111.03,35.82,111.48z" fill="#A86D44"/>
        <path d="M94.3,106.54c-2.02,1.81-5.21,5.47-5.21,7.36c0,0,3.58-3.47,5.99-5.06 c0.6-0.39,1.03-0.89,1.5-1.42c0,0-0.24-1.79-0.62-3.06C95.81,105.21,95.2,105.74,94.3,106.54z" fill="#A86D44"/>
      </g>
    </g>
    <g>
      <g>
        <g>
          <radialGradient id="SVGID_1_" cx="77.1215" cy="66.6941" gradientTransform="matrix(0.9979 -0.065 0.065 0.9979 -1.4539 -39.5353)" gradientUnits="userSpaceOnUse" r="76.1837">
            <stop offset="0.1041" stop-color="#CE93D8"/>
            <stop offset="1" stop-color="#AB47BC"/>
          </radialGradient>
          <circle cx="64" cy="52.76" r="48.76" fill="url(#SVGID_1_)"/>
          <radialGradient id="SVGID_2_" cx="53.3492" cy="46.1346" gradientUnits="userSpaceOnUse" r="69.3892">
            <stop offset="0.2804" stop-color="#81D4FA" stop-opacity="0"/>
            <stop offset="0.9643" stop-color="#81D4FA" stop-opacity="0.9"/>
          </radialGradient>
          <circle cx="64" cy="52.76" r="48.76" fill="url(#SVGID_2_)"/>
          <linearGradient id="SVGID_3_" gradientUnits="userSpaceOnUse" x1="74.6902" x2="35.9418" y1="10.651" y2="111.0067">
            <stop offset="0" stop-color="#673AB7"/>
            <stop offset="0.9367" stop-color="#673AB7" stop-opacity="0"/>
          </linearGradient>
          <path d="M45.91,22.37c4.54,0.39,13.84,3.79,7.07,12.51 C48.53,40.61,42.97,45.94,41,50.55c-5.69,13.33,8.57,18.77,13,20.16c3.84,1.21,11.24,3.91,13.32,7.36 C75.35,91.37,50.93,95,50.93,95s17.97,6.55,32.77-3.46c5.6-3.79,10.53-12.61,5.71-20.55c-2.34-3.85-8.79-7.32-10.37-8.56 c-6.76-5.34-10.93-10.86-7.57-17.05c1.36-2.5,4.2-3.8,6.95-4.56c7.7-2.13,17.31-1.75,19.82-11.26 C100.41,21.36,84.57,3.04,60,6.02c-10.2,1.23-19.38,5.5-26.89,12.52C19.25,31.51,20.45,42.24,20.45,42.24 S29.48,20.94,45.91,22.37z" opacity="0.7" fill="url(#SVGID_3_)"/>
          <linearGradient id="SVGID_4_" gradientUnits="userSpaceOnUse" x1="80.8782" x2="80.8782" y1="24.9339" y2="108.0774">
            <stop offset="0.2348" stop-color="#1D44B3"/>
            <stop offset="0.8842" stop-color="#2044B3" stop-opacity="0.074"/>
            <stop offset="0.936" stop-color="#2144B3" stop-opacity="0"/>
          </linearGradient>
          <path d="M99.77,24.22c-3.48-5.06-8.29-9.08-13.36-12.55 c-8.09-5.53-18.55-5.98-18.55-5.98c12.84,6.14,11.4,14.28,7.21,20.1c-5.1,7.09-15.33,11.88-18,20.51 c-1.56,5.04-0.6,10.34,4.31,13.56s22.58,11.77,23.19,21.89c0.46,7.62-5.6,12.42-5.6,12.42c7.09-1.53,22.01-11.97,17.59-22.71 c-2.14-5.2-11.87-8.65-6.97-14.58c1.82-2.21,14.53-3.39,15.72-16.25C105.86,34.62,102.62,28.36,99.77,24.22z" opacity="0.39" fill="url(#SVGID_4_)"/>
        </g>
        <linearGradient id="SVGID_5_" gradientTransform="matrix(-0.9658 0.2591 0.2591 0.9658 -2567.8049 261.1978)" gradientUnits="userSpaceOnUse" x1="-2575.3552" x2="-2575.3552" y1="437.5194" y2="471.2064">
          <stop offset="0.2271" stop-color="#FFFFFF"/>
          <stop offset="1" stop-color="#FFFFFF" stop-opacity="0"/>
        </linearGradient>
        <path d="M24.71,61.66c0,0-7.3-19.36,7.69-37.29c12.35-14.78,23.5-8.8,21.78-2.5 c-1.73,6.3-7.1,8.24-15.19,14.57C28.3,44.8,24.71,61.66,24.71,61.66z" opacity="0.85" fill="url(#SVGID_5_)"/>
      </g>
      <g>
        <linearGradient id="SVGID_6_" gradientUnits="userSpaceOnUse" x1="85.8711" x2="85.8711" y1="28.9603" y2="52.3872">
          <stop offset="0.2614" stop-color="#FFFFFF"/>
          <stop offset="1" stop-color="#FFFFFF" stop-opacity="0"/>
        </linearGradient>
        <path d="M92.96,34.77c-1.95-0.97-3.51-2.19-4.19-4.26l-2.89-9.57l-2.89,9.57 c-0.68,2.06-2.25,3.29-4.19,4.26l-4.83,2.09l4.97,2.06c1.95,0.97,3.37,2.3,4.06,4.36l2.89,9.49l2.89-9.49 c0.68-2.06,2.11-3.39,4.06-4.36l4.97-2.06L92.96,34.77z" fill="url(#SVGID_6_)"/>
        <linearGradient id="SVGID_7_" gradientUnits="userSpaceOnUse" x1="76.221" x2="76.221" y1="58.1607" y2="85.2307">
          <stop offset="0" stop-color="#FFFFFF"/>
          <stop offset="1" stop-color="#FFFFFF" stop-opacity="0"/>
        </linearGradient>
        <path d="M83.31,69.37c-1.95-0.97-3.51-2.19-4.19-4.26l-2.89-9.57l-2.89,9.57 c-0.68,2.06-2.25,3.29-4.19,4.26l-4.83,2.09l4.97,2.06c1.95,0.97,3.37,2.3,4.06,4.36l2.89,9.49l2.89-9.49 c0.68-2.06,2.11-3.39,4.06-4.36l4.97-2.06L83.31,69.37z" fill="url(#SVGID_7_)"/>
        <path d="M106.34,53.97c-1.47-0.73-2.65-1.66-3.17-3.21l-2.18-7.23l-2.18,7.23 c-0.52,1.56-1.7,2.48-3.17,3.21l-3.64,1.58l3.75,1.56c1.47,0.73,2.55,1.73,3.06,3.29l2.18,7.16l2.18-7.16 c0.52-1.56,1.59-2.56,3.06-3.29l3.75-1.56L106.34,53.97z" fill="#FFFFFF"/>
      </g>
    </g>
  </g>
</svg>

<svg viewBox="0 0 128 128" xmlns="http://www.w3.org/2000/svg">
  <defs>
    <linearGradient id="SVGID_5_" gradientTransform="matrix(-0.9658 0.2591 0.2591 0.9658 0 0)" gradientUnits="userSpaceOnUse" x1="-27.444329" x2="-27.444329" y1="24.425688" y2="58.112688">
      <stop offset="0.2271" stop-color="#FFFFFF"/>
      <stop offset="1" stop-color="#FFFFFF" stop-opacity="0"/>
    </linearGradient>
    <linearGradient id="SVGID_6_" gradientUnits="userSpaceOnUse" x1="85.8711" x2="85.8711" y1="28.9603" y2="52.3872">
      <stop offset="0.2614" stop-color="#FFFFFF"/>
      <stop offset="1" stop-color="#FFFFFF" stop-opacity="0"/>
    </linearGradient>
    <linearGradient id="SVGID_7_" gradientUnits="userSpaceOnUse" x1="76.221" x2="76.221" y1="58.1607" y2="85.2307">
      <stop offset="0" stop-color="#FFFFFF"/>
      <stop offset="1" stop-color="#FFFFFF" stop-opacity="0"/>
    </linearGradient>
    <radialGradient id="SVGID_1_" cx="78.240415" cy="27.148484" gradientTransform="matrix(0.9979 -0.065 0.065 0.9979 0 0)" gradientUnits="userSpaceOnUse" r="76.1837">
      <stop offset="0.1041" stop-color="#CE93D8"/>
      <stop offset="1" stop-color="#AB47BC"/>
    </radialGradient>
    <radialGradient id="SVGID_2_" cx="53.3492" cy="46.1346" gradientUnits="userSpaceOnUse" r="69.3892">
      <stop offset="0.2804" stop-color="#81D4FA" stop-opacity="0"/>
      <stop offset="0.9643" stop-color="#81D4FA" stop-opacity="0.9"/>
    </radialGradient>
    <linearGradient id="SVGID_3_" gradientUnits="userSpaceOnUse" x1="74.6902" x2="35.9418" y1="10.651" y2="111.0067">
      <stop offset="0" stop-color="#673AB7"/>
      <stop offset="0.9367" stop-color="#673AB7" stop-opacity="0"/>
    </linearGradient>
    <linearGradient id="SVGID_4_" gradientUnits="userSpaceOnUse" x1="80.8782" x2="80.8782" y1="24.9339" y2="108.0774">
      <stop offset="0.2348" stop-color="#1D44B3"/>
      <stop offset="0.8842" stop-color="#2044B3" stop-opacity="0.074"/>
      <stop offset="0.936" stop-color="#2144B3" stop-opacity="0"/>
    </linearGradient>
  </defs>
  <path d="M31.13,110.55 C31.13,106.25 37.14,91.06 37.14,91.06 C42.93,89.27 84.74,90.79 91.11,90.79 C91.11,90.79 96.87,103.12 96.87,110.55 C96.87,117.98 79.19,124 64.06,124 C48.93,124 31.13,117.98 31.13,110.55 Z" fill="#8B5738"/>
  <path d="M91.11,93.5 A27.05 11.75 0 1 1 37.01,93.5 A27.05 11.75 0 1 1 91.11,93.5 Z" fill="#FFB17A"/>
  <path d="M38.67,106.15 C41.69,107.87 46.47,107.74 50.18,108.41 C54.9,109.27 57.57,112.87 66.67,112.71 C69.92,112.65 77.5,112.28 77.08,112.29 C76.82,111.76 75.34,111.25 72.46,110.8 C69.82,110.38 67.92,110.42 64.86,110.42 C62.52,110.42 59.31,109.72 56.07,107.94 C54.59,107.13 52.29,106.23 50.04,105.77 C46.58,105.06 44.17,105.81 39.34,103.52 C37.03,102.43 35.16,100.17 34.72,97.54 L33.58,100.82 C35.08,103.57 36.45,104.89 38.67,106.15 Z" fill="#CC8552"/>
  <path d="M88.44,103.46 C80.7,108.38 74.16,107.83 74.16,107.83 C73.61,108.19 78.12,109.16 81.47,108.6 C88.05,107.5 92.05,104.2 94.65,99.78 C94.29,98.66 93.5,96.54 93.5,96.54 C92.75,98.35 91.88,101.27 88.44,103.46 Z" fill="#CC8552"/>
  <path d="M74.51,117.42 C70.23,118.2 66.13,116.87 61.92,115.88 C56.15,114.53 45.31,114.72 45.31,114.72 C44.66,115.04 50.42,117.13 53.22,117.37 C55.77,117.59 58.47,117.37 60.89,118.36 C64.3,119.75 67.6,120.45 70.9,120.45 C77.17,120.45 85.36,116.67 87.31,111.76 C87.31,111.76 83.73,113.86 80.95,115.27 C78.93,116.3 76.75,117.02 74.51,117.42 Z" fill="#A86D44"/>
  <path d="M35.82,111.48 C36.67,112.84 37.54,114.1 38.68,115.23 C40.61,117.15 43.05,118.26 44.62,117.98 C44.62,117.98 39.06,113.49 39.65,112.32 C39.95,111.72 51.49,112.67 51.49,112.67 C51.49,112.67 47.99,110.83 44.58,110.17 C42.37,109.74 38.33,110.6 34.65,108.01 C32.62,106.58 32.31,104.86 32.31,104.86 C32.31,104.86 31.58,107.35 31.43,108.3 C33.56,110.53 35.54,111.03 35.82,111.48 Z" fill="#A86D44"/>
  <path d="M94.3,106.54 C92.28,108.35 89.09,112.01 89.09,113.9 C89.09,113.9 92.67,110.43 95.08,108.84 C95.68,108.45 96.11,107.95 96.58,107.42 C96.58,107.42 96.34,105.63 95.96,104.36 C95.81,105.21 95.2,105.74 94.3,106.54 Z" fill="#A86D44"/>
  <path d="M112.76,52.76 A48.76 48.76 0 1 1 15.24,52.76 A48.76 48.76 0 1 1 112.76,52.76 Z" fill="url(#SVGID_1_)"/>
  <path d="M112.76,52.76 A48.76 48.76 0 1 1 15.24,52.76 A48.76 48.76 0 1 1 112.76,52.76 Z" fill="url(#SVGID_2_)"/>
  <path d="M45.91,22.37 C50.45,22.76 59.75,26.16 52.98,34.88 C48.53,40.61 42.97,45.94 41,50.55 C35.31,63.88 49.57,69.32 54,70.71 C57.84,71.92 65.24,74.62 67.32,78.07 C75.35,91.37 50.93,95 50.93,95 C50.93,95 68.9,101.55 83.7,91.54 C89.3,87.75 94.23,78.93 89.41,70.99 C87.07,67.14 80.62,63.67 79.04,62.43 C72.28,57.09 68.11,51.57 71.47,45.38 C72.83,42.88 75.67,41.58 78.42,40.82 C86.12,38.69 95.73,39.07 98.24,29.56 C100.41,21.36 84.57,3.04 60,6.02 C49.8,7.25 40.62,11.52 33.11,18.54 C19.25,31.51 20.45,42.24 20.45,42.24 C20.45,42.24 29.48,20.94 45.91,22.37 Z" fill="url(#SVGID_3_)" opacity="0.7"/>
  <path d="M99.77,24.22 C96.29,19.16 91.48,15.14 86.41,11.67 C78.32,6.14 67.86,5.69 67.86,5.69 C80.7,11.83 79.26,19.97 75.07,25.79 C69.97,32.88 59.74,37.67 57.07,46.3 C55.51,51.34 56.47,56.64 61.38,59.86 C66.29,63.08 83.96,71.63 84.57,81.75 C85.03,89.37 78.97,94.17 78.97,94.17 C86.06,92.64 100.98,82.2 96.56,71.46 C94.42,66.26 84.69,62.81 89.59,56.88 C91.41,54.67 104.12,53.49 105.31,40.63 C105.86,34.62 102.62,28.36 99.77,24.22 Z" fill="url(#SVGID_4_)" opacity="0.39"/>
  <path d="M24.71,61.66 C24.71,61.66 17.41,42.3 32.4,24.37 C44.75,9.59 55.9,15.57 54.18,21.87 C52.45,28.17 47.08,30.11 38.99,36.44 C28.3,44.8 24.71,61.66 24.71,61.66 Z" fill="url(#SVGID_5_)" opacity="0.85"/>
  <path d="M92.96,34.77 C91.01,33.8 89.45,32.58 88.77,30.51 L85.88,20.94 L82.99,30.51 C82.31,32.57 80.74,33.8 78.8,34.77 L73.97,36.86 L78.94,38.92 C80.89,39.89 82.31,41.22 83,43.28 L85.89,52.77 L88.78,43.28 C89.46,41.22 90.89,39.89 92.84,38.92 L97.81,36.86 L92.96,34.77 Z" fill="url(#SVGID_6_)"/>
  <path d="M83.31,69.37 C81.36,68.4 79.8,67.18 79.12,65.11 L76.23,55.54 L73.34,65.11 C72.66,67.17 71.09,68.4 69.15,69.37 L64.32,71.46 L69.29,73.52 C71.24,74.49 72.66,75.82 73.35,77.88 L76.24,87.37 L79.13,77.88 C79.81,75.82 81.24,74.49 83.19,73.52 L88.16,71.46 L83.31,69.37 Z" fill="url(#SVGID_7_)"/>
  <path d="M106.34,53.97 C104.87,53.24 103.69,52.31 103.17,50.76 L100.99,43.53 L98.81,50.76 C98.29,52.32 97.11,53.24 95.64,53.97 L92,55.55 L95.75,57.11 C97.22,57.84 98.3,58.84 98.81,60.4 L100.99,67.56 L103.17,60.4 C103.69,58.84 104.76,57.84 106.23,57.11 L109.98,55.55 L106.34,53.97 Z" fill="#FFFFFF"/>
</svg>
